Adwaita++/actions/scalable/iso-image-burn.svg

<svg height="64" width="64" xmlns="http://www.w3.org/2000/svg">
  <path d="m32 5c-15.512 0-28 12.488-28 28s12.488 28 28 28 28-12.488 28-28-12.488-28-28-28zm0 16a12 12 0 0 1 12 12 12 12 0 0 1 -12 12 12 12 0 0 1 -12-12 12 12 0 0 1 12-12z" opacity=".2"/>
  <path d="m32 17a15 15 0 0 0 -15 15 15 15 0 0 0 15 15 15 15 0 0 0 15-15 15 15 0 0 0 -15-15zm0 9c3.3138 0 6 2.6862 6 6s-2.6862 6-6 6-6-2.6862-6-6 2.6862-6 6-6z" fill="#858585"/>
  <path d="m32 4c-15.512 0-28 12.488-28 28s12.488 28 28 28 28-12.488 28-28-12.488-28-28-28zm0 16a12 12 0 0 1 12 12 12 12 0 0 1 -12 12 12 12 0 0 1 -12-12 12 12 0 0 1 12-12z" fill="#e4e4e4"/>
  <path d="m32 4c-15.512 0-28 12.488-28 28 0 .11345.0112805.224113.0175781.335938.3515432-15.201757 12.6931499-27.335938 27.9824219-27.335938s27.630879 12.134181 27.982422 27.335938c.006298-.111825.017578-.222488.017578-.335938 0-15.512-12.488-28-28-28zm-11.949219 28.996094a12 12 0 0 0 -.050781 1.003906 12 12 0 0 0 .025391.5 12 12 0 0 1 .02539-.503906 12 12 0 0 0 11.949219 11.003906 12 12 0 0 0 11.949219-10.996094 12 12 0 0 1 .029297.591797 12 12 0 0 0 .021484-.595703 12 12 0 0 0 -.050781-.996094 12 12 0 0 1 -11.949219 10.996094 12 12 0 0 1 -11.949219-11.003906z" fill="#fff" opacity=".2"/>
  <path d="m63.958 45.848a16 16 0 0 1 -15.958 15.152 16 16 0 0 1 -15.958-14.848 16 16 0 0 0 -.042.848 16 16 0 0 0 16 16 16 16 0 0 0 16-16 16 16 0 0 0 -.04296-1.15234z" opacity=".2"/>
  <circle cx="48" cy="46" fill="#ffb522" r="16"/>
  <path d="m55.99996 50.436v3.564h-3.5638l-9.0008-9.0008 3.5638-3.5638zm-15.7172-8.5782c-.37696-.37694-.37696-.9709 0-1.34786l2.2274-2.2274c.37696-.37696.97092-.37696 1.34786 0l1.862 1.874-3.564 3.564z" fill="#fff"/>
</svg>

<svg xmlns="http://www.w3.org/2000/svg" width="64" height="64" version="1">
 <path style="opacity:0.2" d="M 32,5 C 16.488,5 4,17.488 4,33 4,48.512 16.488,61 32,61 47.512,61 60,48.512 60,33 60,17.488 47.512,5 32,5 Z m 0,16 A 12,12 0 0 1 44,33 12,12 0 0 1 32,45 12,12 0 0 1 20,33 12,12 0 0 1 32,21 Z"/>
 <path style="fill:#858585" d="M 32,17 A 15,15 0 0 0 17,32 15,15 0 0 0 32,47 15,15 0 0 0 47,32 15,15 0 0 0 32,17 Z m 0,9 c 3.3138,0 6,2.6862 6,6 0,3.3138 -2.6862,6 -6,6 -3.3138,0 -6,-2.6862 -6,-6 0,-3.3138 2.6862,-6 6,-6 z"/>
 <path style="fill:#e4e4e4" d="M 32,4 C 16.488,4 4,16.488 4,32 4,47.512 16.488,60 32,60 47.512,60 60,47.512 60,32 60,16.488 47.512,4 32,4 Z m 0,16 A 12,12 0 0 1 44,32 12,12 0 0 1 32,44 12,12 0 0 1 20,32 12,12 0 0 1 32,20 Z"/>
 <path style="opacity:0.2;fill:#ffffff" d="M 32 4 C 16.488 4 4 16.488 4 32 C 4 32.11345 4.0112805 32.224113 4.0175781 32.335938 C 4.3691213 17.134181 16.710728 5 32 5 C 47.289272 5 59.630879 17.134181 59.982422 32.335938 C 59.98872 32.224113 60 32.11345 60 32 C 60 16.488 47.512 4 32 4 z M 20.050781 32.996094 A 12 12 0 0 0 20 34 A 12 12 0 0 0 20.025391 34.5 A 12 12 0 0 1 20.050781 33.996094 A 12 12 0 0 0 32 45 A 12 12 0 0 0 43.949219 34.003906 A 12 12 0 0 1 43.978516 34.595703 A 12 12 0 0 0 44 34 A 12 12 0 0 0 43.949219 33.003906 A 12 12 0 0 1 32 44 A 12 12 0 0 1 20.050781 32.996094 z"/>
 <path style="opacity:0.2" d="M 63.958,45.848 A 16,16 0 0 1 48,61 16,16 0 0 1 32.042,46.152 16,16 0 0 0 32,47 16,16 0 0 0 48,63 16,16 0 0 0 64,47 16,16 0 0 0 63.95704,45.84766 Z"/>
 <circle style="fill:#ffb522" cx="48" cy="46" r="16"/>
 <path style="fill:#ffffff" d="m 55.99996,50.436 0,3.564 -3.5638,0 -9.0008,-9.0008 3.5638,-3.5638 z m -15.7172,-8.5782 c -0.37696,-0.37694 -0.37696,-0.9709 0,-1.34786 l 2.2274,-2.2274 c 0.37696,-0.37696 0.97092,-0.37696 1.34786,0 l 1.862,1.874 -3.564,3.564 z"/>
</svg>
